lib/flags/l/MM.svg

<svg xmlns="http://www.w3.org/2000/svg" fill="none" viewBox="0 0 32 24"><mask id="MM_svg__a" width="32" height="24" x="0" y="0" mask-type="alpha" maskUnits="userSpaceOnUse"><path fill="#fff" d="M0 0H32V24H0z"/></mask><g fill-rule="evenodd" clip-rule="evenodd" mask="url(#MM_svg__a)"><path fill="#E31D1C" d="M0 16H32V24H0V16Z"/><path fill="#5EAA22" d="M0 8H32V16H0V8Z"/><path fill="#FFD018" d="M0 0H32V8H0V0Z"/><path fill="#F7FCFF" d="M16.0621 15.9755L10.9112 19.2504L12.6389 13.5174L8.96495 9.7717L14.0301 9.66105L16.2711 4.00122L18.3131 9.73581L23.3662 9.82402L19.569 13.6383L21.3421 19.0923L16.0621 15.9755Z"/></g></svg>

<svg xmlns="http://www.w3.org/2000/svg" fill="none" viewBox="0 0 32 24"><mask id="MM_svg__a" width="32" height="24" x="0" y="0" maskUnits="userSpaceOnUse"><path fill="#fff" d="M0 0h32v24H0z"/></mask><g fill-rule="evenodd" clip-rule="evenodd" mask="url(#MM_svg__a)"><path fill="#E31D1C" d="M0 16h32v8H0v-8z"/><path fill="#5EAA22" d="M0 8h32v8H0V8z"/><path fill="#FFD018" d="M0 0h32v8H0V0z"/><path fill="#F7FCFF" d="M16.062 15.976l-5.15 3.274 1.727-5.733-3.674-3.745 5.065-.11 2.241-5.66 2.042 5.734 5.053.088-3.797 3.814 1.773 5.454-5.28-3.116z"/></g></svg>
